X: 2
P: Calu\,sari Reel
M: 2/4|
L: 1/16
K: A^c^f^B^d
|: "A"A2.e2 A2.e2 | cBAB cd.e2 | A2.e2 A2.e2 | cBAB cAE2  |
|     A2.e2 A2.e2 | cBAB cdef  | g2fe  f2.e2 | cdec A2z2 :|
|: "A"g2fe  f2.e2 | cBAB cdef  | g2fe  f2.e2 | .a2 .a2a4  |
|     g2fe  f2.e2 | cBAB cdef  | g2fe  f2.e2 | cdec A2z2 :|
